svg/aws-ami.svg

<?xml version="1.0" encoding="UTF-8"?>
<svg xmlns="http://www.w3.org/2000/svg" xmlns:xlink="http://www.w3.org/1999/xlink" width="30" height="32" viewBox="0 0 30 32">
<path fill-rule="evenodd" fill="rgb(61.568627%, 31.372549%, 14.509804%)" fill-opacity="1" d="M 0 6.691406 C 0 3.777344 2.300781 1.429688 5.164062 1.429688 L 24.835938 1.429688 C 27.699219 1.429688 30 3.777344 30 6.691406 L 30 26.738281 C 30 29.652344 27.699219 32 24.835938 32 L 5.164062 32 C 2.300781 32 0 29.652344 0 26.738281 Z M 0 6.691406 "/>
<path fill-rule="evenodd" fill="rgb(96.078431%, 52.156863%, 21.176471%)" fill-opacity="1" d="M 0 5.261719 C 0 2.347656 2.300781 0 5.164062 0 L 24.835938 0 C 27.699219 0 30 2.347656 30 5.261719 L 30 25.308594 C 30 28.222656 27.699219 30.570312 24.835938 30.570312 L 5.164062 30.570312 C 2.300781 30.570312 0 28.222656 0 25.308594 Z M 0 5.261719 "/>
<path fill-rule="evenodd" fill="rgb(100%, 100%, 100%)" fill-opacity="1" d="M 5.460938 4.578125 L 24.519531 4.578125 L 24.519531 13.734375 L 5.460938 13.734375 Z M 5.460938 4.578125 "/>
<path fill-rule="evenodd" fill="rgb(96.078431%, 52.156863%, 21.176471%)" fill-opacity="1" d="M 6.917969 6.089844 L 11.441406 6.089844 L 11.441406 12.222656 L 6.917969 12.222656 Z M 12.722656 6.089844 L 17.246094 6.089844 L 17.246094 12.222656 L 12.722656 12.222656 Z M 18.542969 6.089844 L 23.066406 6.089844 L 23.066406 12.222656 L 18.542969 12.222656 Z M 18.542969 6.089844 "/>
<path fill-rule="evenodd" fill="rgb(100%, 100%, 100%)" fill-opacity="1" d="M 5.460938 16.835938 L 24.519531 16.835938 L 24.519531 25.988281 L 5.460938 25.988281 Z M 5.460938 16.835938 "/>
<path fill-rule="evenodd" fill="rgb(96.078431%, 52.156863%, 21.176471%)" fill-opacity="1" d="M 6.917969 18.347656 L 11.441406 18.347656 L 11.441406 24.480469 L 6.917969 24.480469 Z M 12.722656 18.347656 L 17.246094 18.347656 L 17.246094 24.480469 L 12.722656 24.480469 Z M 18.542969 18.347656 L 23.066406 18.347656 L 23.066406 24.480469 L 18.542969 24.480469 Z M 18.542969 18.347656 "/>
</svg>

<svg role="img" viewBox="0 0 30 32" height="32" width="30" xmlns="http://www.w3.org/2000/svg"><path d="M0 6.691C0 3.777 2.3 1.43 5.164 1.43h19.672C27.699 1.43 30 3.777 30 6.69v20.047C30 29.652 27.7 32 24.836 32H5.164C2.301 32 0 29.652 0 26.738Zm0 0" fill="rgb(61.568627%, 31.372549%, 14.509804%)" fill-rule="evenodd"/><path d="M0 5.262C0 2.348 2.3 0 5.164 0h19.672C27.699 0 30 2.348 30 5.262v20.047c0 2.914-2.3 5.261-5.164 5.261H5.164C2.301 30.57 0 28.223 0 25.31Zm0 0" fill="rgb(96.078431%, 52.156863%, 21.176471%)" fill-rule="evenodd"/><path d="M5.46 4.578h19.06v9.156H5.46Zm0 0" fill="rgb(100%, 100%, 100%)" fill-rule="evenodd"/><path d="M6.918 6.09h4.523v6.133H6.918Zm5.805 0h4.523v6.133h-4.523Zm5.82 0h4.523v6.133h-4.523Zm0 0" fill="rgb(96.078431%, 52.156863%, 21.176471%)" fill-rule="evenodd"/><path d="M5.46 16.836h19.06v9.152H5.46Zm0 0" fill="rgb(100%, 100%, 100%)" fill-rule="evenodd"/><path d="M6.918 18.348h4.523v6.132H6.918Zm5.805 0h4.523v6.132h-4.523Zm5.82 0h4.523v6.132h-4.523Zm0 0" fill="rgb(96.078431%, 52.156863%, 21.176471%)" fill-rule="evenodd"/></svg>
